svg/fluentui-system-icons/ic_fluent_table_delete_column_20_filled.svg

<svg width="20" height="20" viewBox="0 0 20 20" fill="none" xmlns="http://www.w3.org/2000/svg">
<path d="M10.5 2.5C10.5 2.22386 10.2761 2 10 2C9.72386 2 9.5 2.22386 9.5 2.5V7.375C9.62722 7.48209 9.74377 7.60252 9.85995 7.72255C9.90648 7.77064 9.95295 7.81866 10 7.86573C10.047 7.81873 10.0934 7.77079 10.1399 7.7228C10.2561 7.60274 10.3728 7.4822 10.5 7.3751V2.5ZM9.5 17.5V12.612C9.62722 12.505 9.74377 12.3845 9.85995 12.2645C9.90648 12.2164 9.95295 12.1684 10 12.1213C10.0471 12.1684 10.0935 12.2163 10.14 12.2644C10.2562 12.3844 10.3728 12.5049 10.5 12.612V17.5C10.5 17.7761 10.2761 18 10 18C9.72386 18 9.5 17.7761 9.5 17.5ZM2 3.5C2 3.22386 2.22386 3 2.5 3H4C5.10457 3 6 3.89543 6 5V7H2V3.5ZM2 16.5V13H6V15C6 16.1046 5.10457 17 4 17H2.5C2.22386 17 2 16.7761 2 16.5ZM6 8V12H2V8H6ZM18 3.5C18 3.22386 17.7761 3 17.5 3H16C14.8954 3 14 3.89543 14 5V7H18V3.5ZM14 13V15C14 16.1046 14.8954 17 16 17H17.5C17.7761 17 18 16.7761 18 16.5V13H14ZM11.8536 8.14645C11.6583 7.95118 11.3417 7.95118 11.1464 8.14645L10 9.29289L8.85355 8.14645C8.65829 7.95118 8.34171 7.95118 8.14645 8.14645C7.95118 8.34171 7.95118 8.65829 8.14645 8.85355L9.29289 10L8.14645 11.1464C7.95118 11.3417 7.95118 11.6583 8.14645 11.8536C8.34171 12.0488 8.65829 12.0488 8.85355 11.8536L10 10.7071L11.1464 11.8536C11.3417 12.0488 11.6583 12.0488 11.8536 11.8536C12.0488 11.6583 12.0488 11.3417 11.8536 11.1464L10.7071 10L11.8536 8.85355C12.0488 8.65829 12.0488 8.34171 11.8536 8.14645ZM18 12V8H14V12H18Z" fill="#212121"/>
</svg>

<svg xmlns="http://www.w3.org/2000/svg" width="20" height="20"><path d="M10.5 2.5a.5.5 0 0 0-1 0v4.875c.127.107.244.228.36.348l.14.143.14-.143c.116-.12.233-.24.36-.348V2.5Zm-1 15v-4.888c.127-.107.244-.228.36-.348l.14-.143.14.143c.116.12.233.24.36.348V17.5a.5.5 0 0 1-1 0ZM2 3.5a.5.5 0 0 1 .5-.5H4a2 2 0 0 1 2 2v2H2V3.5Zm0 13V13h4v2a2 2 0 0 1-2 2H2.5a.5.5 0 0 1-.5-.5ZM6 8v4H2V8h4Zm12-4.5a.5.5 0 0 0-.5-.5H16a2 2 0 0 0-2 2v2h4V3.5ZM14 13v2a2 2 0 0 0 2 2h1.5a.5.5 0 0 0 .5-.5V13h-4Zm-2.146-4.854a.5.5 0 0 0-.708 0L10 9.293 8.854 8.146a.5.5 0 1 0-.708.708L9.293 10l-1.147 1.146a.5.5 0 0 0 .708.708L10 10.707l1.146 1.147a.5.5 0 0 0 .708-.708L10.707 10l1.147-1.146a.5.5 0 0 0 0-.708ZM18 12V8h-4v4h4Z"/></svg>
